X:21122 
T:MAN in the MOON, The 
B:DMI.0311
Z:Nordberg/Black
R:jig
%Q:1/4=160
M:6/8
L:1/8
K:Em
c|BGE EFA|BAB d2B|AFD DFA|DFA dfd|
BGE EFA|BAB def|edB AdF|FEE E2:|
c|efe edB|def g2e|ded d^cB|def gbg|
e/f/ge edB|def gfg|edB AdF|FEE E2:|

%%%

